!!!!SEGMENT: pl-cz--ii-87--003-003_grim-jozef--msza-druga-graduale.krn
!!!cenid: 18xx:1182
!!!COM: Grim, Józef
!!!COM-rismID: pe30003883
!!!CDT: ~1800-~1899
!!!CNT:
!!!OPR: Msza druga
!!!OTL: Graduale
!!!OMV: 003
!!!PDT: 1888
!!!AGN: Sacred; Mass
!!!SMS-siglum: PL-CZ
!!!SMS-shelfmark: II-87
!!!SMS-shelfwork: 003-003 M
!!!SMS-variant:
!!!SMS-altvar:
!!!NIFC-rismSourceID: 300033223
!!!NIFC-rismChildID: 300033226
!!!NIFC-islandoraID: pl-cz:33881
!!!URL-pdf-islandora: https://repozytorium.nifc.pl/islandora/object/pl-cz%3A33881/datastream/PDF/view
!!!URL-scan:
!!!ONB-nifc: UWAGA: części Mszy: Kirie, Gloria, Graduale, Credo, Offertorium, Sanctus, Po podniesieniu, Agnus
!!!AIN: 1 organ 1 vox
!!!key: G
!!!OMD: Andante
**kern	**kern	**kern	**text
*part2	*part2	*part1	*part1
*staff3	*staff2	*staff1	*staff1
*I"Organ	*I"Organ	*I"Głos	*
*Iorgan	*Iorgan	*Ivox	*
*ICklav	*ICklav	*ICvox	*
*IGacmp	*IGacmp	*IGsolo	*
*>[A,B,B]	*>[A,B,B]	*>[A,B,B]	*>[A,B,B]
*>A	*>A	*>A	*>A
*clefF4	*clefG2	*clefG2	*
*k[f#]	*k[f#]	*k[f#]	*
*G:	*G:	*G:	*
*M4/4	*M4/4	*M4/4	*
*met(c)	*met(c)	*met(c)	*
=1	=1	=1	=1
*	*^	*	*
2G 2GG/	2.g/	(>2d [2B\	1r	.
4E\	.	4e) 4B\]	.	.
!LO:N:vis=4.	!	!	!	!
4C\	8b/L	4e 4c\	.	.
.	8a/J	.	.	.
=2	=2	=2	=2	=2
*	*	*^	*^	*
!LO:N:vis=2.	!	!	!	!LO:N:vis=1	!	!
2D\	4g/	4B\	2.d/	2r	2ryy	.
.	4f#/	4A\	.	.	.	.
4GG;</	4g;/	4B\	.	4ryy	4ryy	.
=||:	=||:	=||:	=||:	=||:	=||:	=||:
*>B	*>B	*>B	*>B	*>B	*>B	*>B
8E\L	8gL 8e 8B/	4rFyy	4rGGyy	8g/L	8e\L	Pow-
8D\J	8aJ 8f# 8d/	.	.	8a/J	8f#\J	.
*	*	*v	*v	*	*	*
=3	=3	=3	=3	=3	=3
2G 2GG\	2b 2g/	2d\	4b/	4g\	-stan-
.	.	.	4b/	4g\	-cie
2E\	2b 2g/	2e\	4b/	4g\	swia-
.	.	.	8b/	8g\	-tło-
.	.	.	8b/	8g\	-sci
=4	=4	=4	=4	=4	=4
4AA/	2cc 2a/	2.e\	2cc/	2a\	sy-
4C/	.	.	.	.	.
4E\	4b 4g/	.	4b/	4g\	-ny
4D#X\	8b/L	4f# 4B\	8b/L	4f#\	po-
.	8a/J	.	8a/J	.	.
=5	=5	=5	=5	=5	=5
2E\	2g/	2e 2B\	4g/	4e\	-kor-
.	.	.	4g/	4e\	-nem
4C/	4a 4e 4c/	4rAyy	4a/	4e\	czu-
8AA/L	8cc/L	8e\L	8cc/	8e\	-ciem
8C/J	8a/J	8d\J	8a/	8c\	.
!!LO:LB:g=original
=6	=6	=6	=6	=6	=6
2.D\	2g/	4B\	2g/	4B\	prze-
.	.	4B-X\	.	4B-X\	.
.	4f#/	8A\L	4f#/	8A\L	-ję-
.	.	[8d\J	.	8d\J	.
4D\	8gL 8e/	4d\]	8g/L	8e\L	-te
.	8aJ 8f#/	.	8a/J	8f#\J	Pan
=7	=7	=7	=7	=7	=7
4GG/	2b 2g/	2d\	4b/	4g\	zgór-
4G\	.	.	4b/	4g\	-nej
4Fn\	4b/	2g\	4b/	4g\	Nie-
8E\L	8cc/L	.	8cc/	8g\	-ba
8D\J	8ddJ 8b/	.	8dd/	8g\	kra-
=8	=8	=8	=8	=8	=8
4C/	(4.ee/	4cc 4g\	(4.ee/	4g\	-i-
4E\	.	4b 4g#X\	.	4g#X\	.
.	8dd/)	.	8dd/)	.	.
4AA/	4cc 4a/	2e\	4cc/	4a\	-ny
4C/	4a/	.	4a/	4e\	o-
=9	=9	=9	=9	=9	=9
4BB/	4.b/	4d#X\	4b/	4d#X\	-gła-
4D#X\	.	4f# 4B\	8b/	8f#\	-sza
.	8a/	.	8a/	8f#\	na-
4E/	4g/	4e 4B\	4g/	4e\	-u-
4C/	8b/L	4e\	8b/L	4e\	-ki
.	8a/J	.	8a/J	.	.
=10	=10	=10	=10	=10	=10
2D\	4g 4B/	2d/	(4g/	(4B\	Swię-
.	4f# 4A/	.	4f#/)	4A\)	.
4GG/	4g 4B/	2rAyy	4g/	4B\	-te.
4r	4r	.	4r	4ryy	.
*	*v	*v	*	*	*
*	*	*v	*v	*
=:|!	=:|!	=:|!	=:|!
*-	*-	*-	*-
!!!system-decoration: <s1>(s2,s3)
!!!RDF**kern: > = above
!!!RDF**kern: < = below
!!!ENC: Marcin Jachim
!!!END: 2020-11-07
!!!ENC: Marta Lawrence
!!!END: 2021-11-14
!!!YEC: Copyright 2022 Narodowy Instytut Fryderyka Chopina (https://polishscores.org)
!!!YEM: License CC-BY-4.0 (https://creativecommons.org/licenses/by/4.0)
